X: 2
T: Pennsylvania Polka  (G)
C: Lester Lee & Zeke Manners, 1942
R: polka
Z: 2012 John Chambers <jc:trillian.mit.edu>
M: 2/4
L: 1/8
K: G
"I1"[|] def | "G"gz de- | eB d2 | Gz DE- | EB,D2 \
"A"[|\
"G"dd zd | BB zB | GB GD- | D2 z2|\
"G"zD GB | d2 e2 | "D7"eF3- | F2 z2|
"D7"ee ze | cc zc | Ac AF- | F2 z2|\
zD FA | d2 "D9"e2 | "G"eB3- | B2 zB |
"G"dd zd | BB zB | GB GD- | D2 z2|\
zD GB | "G7"d2 =f2 | "C"=f e3- | e2 z2|
"C"e^d e^e | "D7"f3 =e | "G"e d3 | zB GE |\
"D7"D F2 A | e2 F2 | "G"A G3- | "Fine"G |]
K: C
"I2"[|] gab | "C"c'z ga- | ae g2 | cz GA- | AEG2 \
"B"[|\
"C"G4 | A4 | B4 | A4 |\
"C"G2 A2 | B2 c2 | "G7"B>f ff | f4 |
"G7"G4 | A4 | B4 | A4 |\
"G7"G2 A2 | B2 A2 | "C"G>e ee | e4 |
"C"G4 | A4 | B4 | A4 |\
"C"G2 A2 | B2 c2 | "F"d>A AA | A3 d |
"Dm"d>A ^GA | d2 "G7"ed | "C"c>G =FG | "(Am)"c3 c |
"G7"B3 A | G3 ^G | "D7"Ac "G7"Bd | "C"c "d.C."y |]
%%begintext
	I1 and I2 (intro and interlude) are optional; omit them for 16/32/64-bar dances.
%%endtext
